src/assets/icons/theme.svg

<svg xmlns="http://www.w3.org/2000/svg" width="163.537" height="163.538" xmlns:v="https://vecta.io/nano"><path d="M163.226 47.876c-4.787-46.347-56.53-45.631-81.462-23.259C56.832 2.246 5.113 1.53.313 47.876c-6.191 59.663 81.45 105.892 81.45 105.892s87.639-46.223 81.463-105.892zM49.231 104.472h-6.053v-6.053h6.053v6.053zm0-19.671h-6.053v-6.053h6.053v6.053zm0-19.671h-6.053v-6.052h6.053v6.052zm71.124 39.342H55.792v-6.053h64.563v6.053zm0-19.671H55.792v-6.053h64.563v6.053zm0-19.671H55.792v-6.052h64.563v6.052z"/></svg>

<?xml version="1.0" encoding="iso-8859-1"?>
<!-- Generator: Adobe Illustrator 16.0.0, SVG Export Plug-In . SVG Version: 6.00 Build 0)  -->
<!DOCTYPE svg PUBLIC "-//W3C//DTD SVG 1.1//EN" "http://www.w3.org/Graphics/SVG/1.1/DTD/svg11.dtd">
<svg version="1.1" id="Capa_1" xmlns="http://www.w3.org/2000/svg" xmlns:xlink="http://www.w3.org/1999/xlink" x="0px" y="0px"
	 width="163.537px" height="163.538px" viewBox="0 0 163.537 163.538" style="enable-background:new 0 0 163.537 163.538;"
	 xml:space="preserve">
<g>
	<path d="M163.226,47.876c-4.787-46.347-56.53-45.631-81.462-23.259C56.832,2.246,5.113,1.53,0.313,47.876
		c-6.191,59.663,81.45,105.892,81.45,105.892S169.402,107.545,163.226,47.876z M49.231,104.472h-6.053v-6.053h6.053V104.472z
		 M49.231,84.801h-6.053v-6.053h6.053V84.801z M49.231,65.13h-6.053v-6.052h6.053V65.13z M120.355,104.472H55.792v-6.053h64.563
		V104.472z M120.355,84.801H55.792v-6.053h64.563V84.801z M120.355,65.13H55.792v-6.052h64.563V65.13z"/>
</g>
<g>
</g>
<g>
</g>
<g>
</g>
<g>
</g>
<g>
</g>
<g>
</g>
<g>
</g>
<g>
</g>
<g>
</g>
<g>
</g>
<g>
</g>
<g>
</g>
<g>
</g>
<g>
</g>
<g>
</g>
</svg>
